src/assets/svg_icons/youtube.svg

<?xml version="1.0" encoding="utf-8"?><!-- Uploaded to: SVG Repo, www.svgrepo.com, Generator: SVG Repo Mixer Tools -->
<svg width="800px" height="800px" viewBox="0 0 24 24" fill="none" xmlns="http://www.w3.org/2000/svg">
<path fill-rule="evenodd" clip-rule="evenodd" d="M20.5949 4.45999C21.5421 4.71353 22.2865 5.45785 22.54 6.40501C22.9982 8.12002 23 11.7004 23 11.7004C23 11.7004 23 15.2807 22.54 16.9957C22.2865 17.9429 21.5421 18.6872 20.5949 18.9407C18.88 19.4007 12 19.4007 12 19.4007C12 19.4007 5.12002 19.4007 3.405 18.9407C2.45785 18.6872 1.71353 17.9429 1.45999 16.9957C1 15.2807 1 11.7004 1 11.7004C1 11.7004 1 8.12002 1.45999 6.40501C1.71353 5.45785 2.45785 4.71353 3.405 4.45999C5.12002 4 12 4 12 4C12 4 18.88 4 20.5949 4.45999ZM15.5134 11.7007L9.79788 15.0003V8.40101L15.5134 11.7007Z" fill="#000000"/>
</svg>

<svg
  xmlns="http://www.w3.org/2000/svg"
  width="800"
  height="800"
  viewBox="0 0 24 24"
  fill="none"
  xmlns:v="https://vecta.io/nano"
>
  <path
    fill-rule="evenodd"
    d="M20.595 4.46c.947.254 1.692.998 1.945 1.945.458 1.715.46 5.295.46 5.295s0 3.58-.46 5.295c-.253.947-.998 1.692-1.945 1.945-1.715.46-8.595.46-8.595.46s-6.88 0-8.595-.46c-.947-.253-1.691-.998-1.945-1.945C1 15.281 1 11.7 1 11.7s0-3.58.46-5.295c.254-.947.998-1.691 1.945-1.945C5.12 4 12 4 12 4s6.88 0 8.595.46zm-5.081 7.241L9.798 15V8.401l5.716 3.3z"
    fill="#000"
  />
</svg>
